; generated by PrusaSlicer 2.3.1+win64 on 2021-06-29 at 23:05:24 UTC

; 

; external perimeters extrusion width = 0.45mm
; perimeters extrusion width = 0.45mm
; infill extrusion width = 0.45mm
; solid infill extrusion width = 0.45mm
; top infill extrusion width = 0.40mm
; first layer extrusion width = 0.42mm

; external perimeters extrusion width = 0.45mm
; perimeters extrusion width = 0.45mm
; infill extrusion width = 0.45mm
; solid infill extrusion width = 0.45mm
; top infill extrusion width = 0.40mm
; first layer extrusion width = 0.42mm

; external perimeters extrusion width = 0.45mm
; perimeters extrusion width = 0.45mm
; infill extrusion width = 0.45mm
; solid infill extrusion width = 0.45mm
; top infill extrusion width = 0.40mm
; first layer extrusion width = 0.42mm

; external perimeters extrusion width = 0.45mm
; perimeters extrusion width = 0.45mm
; infill extrusion width = 0.45mm
; solid infill extrusion width = 0.45mm
; top infill extrusion width = 0.40mm
; first layer extrusion width = 0.42mm

; external perimeters extrusion width = 0.45mm
; perimeters extrusion width = 0.45mm
; infill extrusion width = 0.45mm
; solid infill extrusion width = 0.45mm
; top infill extrusion width = 0.40mm
; first layer extrusion width = 0.42mm

; external perimeters extrusion width = 0.45mm
; perimeters extrusion width = 0.45mm
; infill extrusion width = 0.45mm
; solid infill extrusion width = 0.45mm
; top infill extrusion width = 0.40mm
; first layer extrusion width = 0.42mm

M73 P0 R94
M73 Q0 S95
M201 X1000 Y1000 Z200 E8000 ; sets maximum accelerations, mm/sec^2
M203 X200 Y200 Z12 E120 ; sets maximum feedrates, mm/sec
M204 P1250 R1250 T1250 ; sets acceleration (P, T) and retract acceleration (R), mm/sec^2
M205 X8.00 Y8.00 Z0.40 E4.50 ; sets the jerk limits, mm/sec
M205 S0 T0 ; sets the minimum extruding and travel feed rate, mm/sec
M107
;TYPE:Custom
M862.3 P "MK3MMU2" ; printer model check
M862.1 P0.4 ; nozzle diameter check
M115 U3.9.3 ; tell printer latest fw version
G90 ; use absolute coordinates
M83 ; extruder relative mode
M104 S215 ; set extruder temp
M140 S60 ; set bed temp
M190 S60 ; wait for bed temp
M109 S215 ; wait for extruder temp
G28 W ; home all without mesh bed level
G80 ; mesh bed leveling

; Send the filament type to the MMU2.0 unit.
; E stands for extruder number, F stands for filament type (0: default; 1:flex; 2: PVA)
M403 E0 F0
M403 E1 F0
M403 E2 F0
M403 E3 F0
M403 E4 F0


;go outside print area
G1 Y-3.0 F1000.0
M73 Q0 S94
G1 Z0.4 F1000.0
; select extruder
T1
; initial load
G1 X55.0 E32.0 F1073.0
G1 X5.0 E32.0 F1800.0
G1 X55.0 E8.0 F2000.0
G1 Z0.3 F1000.0
G92 E0.0
G1 X240.0 E25.0 F2200.0
G1 Y-2.0 F1000.0
G1 X55.0 E25 F1400.0
G1 Z0.20 F1000.0
G1 X5.0 E4.0 F1000.0
G92 E0.0


M221 S95
G92 E0.0

; Don't change E values below. Excessive value can damage the printer.
M907 E430 ; set extruder motor current
G21 ; set units to millimeters
G90 ; use absolute coordinates
M83 ; use relative distances for extrusion
T1
M900 K0.05 ; Filament gcode LA 1.5
M900 K30 ; Filament gcode LA 1.0
M73 P0 R93
G1 Z0.200 F10800.000
;LAYER_CHANGE
;Z:0.2
;HEIGHT:0.2
;BEFORE_LAYER_CHANGE
G92 E0.0
;0.2


G1 E-0.80000 F2100.000
G1 Z0.600 F10800.000
G1 Z0.200
;AFTER_LAYER_CHANGE
;0.2
G1 E-2.20000 F2100.000
G1 Z0.600 F10800.000
G1 X233.000 Y125.000
G1 Z0.200
G1 E3.00000 F2100.000
;HEIGHT:0.200000
;TYPE:Wipe tower
;WIDTH:0.500000
;-------------------------------------
; CP WIPE TOWER FIRST LAYER BRIM START
G1  X233.000 Y200.360  E4.2962 F2400
G1  X230.457 Y200.817   F7000
G1  Y124.543  E3.1888 F2100
G1  X169.543  E2.5466
G1  Y200.817  E3.1888
G1  X230.457  E2.5466
G1  X230.914 Y201.274   F7000
G1  Y124.086  E3.2270 F2100
G1  X169.086  E2.5849
G1  Y201.274  E3.2270
M73 Q1 S94
G1  X230.914  E2.5849
M73 P1 R93
G1  X231.371 Y201.731   F7000
G1  Y123.629  E3.2652 F2100
G1  X168.629  E2.6231
G1  Y201.731  E3.2652
G1  X231.371  E2.6231
G1  X231.828 Y202.188   F7000
G1  Y123.172  E3.3034 F2100
G1  X168.172  E2.6613
G1  Y202.188  E3.3034
M73 Q1 S93
G1  X231.828  E2.6613
; CP WIPE TOWER FIRST LAYER BRIM END
;-----------------------------------
G1  X229.500 Y125.500   F7200
;HEIGHT:0.200000
;TYPE:Wipe tower
;WIDTH:0.500000
;--------------------
; CP EMPTY GRID START
; layer #1
G1  X230.000 
G1  Y125.000 
G1  Y200.360  E2.8642 F1450
G1  X170.000  E2.2804
G1  Y125.000  E2.8642
G1  X230.000  E2.2804
G1  X229.500 
G1  Y125.500 
G1  Y199.860  E2.8262
G1  X170.500  E2.2424
G1  Y125.500  E2.8262
G1  X229.500  E2.2424
M73 P1 R92
G1  Y199.860 
G1  X229.000 Y199.354   E0.0270
G1  X171.000  E2.2044
G1  Y198.848  E0.0192
G1  X229.000  E2.2044
G1  Y198.342  E0.0192
G1  X171.000  E2.2044
G1  Y197.836  E0.0192
G1  X229.000  E2.2044
G1  Y197.331  E0.0192
G1  X171.000  E2.2044
M73 Q2 S93
G1  Y196.825  E0.0192
G1  X229.000  E2.2044
M73 P2 R92
G1  Y196.319  E0.0192
G1  X171.000  E2.2044
G1  Y195.813  E0.0192
G1  X229.000  E2.2044
G1  Y195.307  E0.0192
G1  X171.000  E2.2044
G1  Y194.801  E0.0192
G1  X229.000  E2.2044
G1  Y194.295  E0.0192
G1  X171.000  E2.2044
G1  Y193.789  E0.0192
G1  X229.000  E2.2044
G1  Y193.283  E0.0192
G1  X171.000  E2.2044
M73 Q2 S92
G1  Y192.778  E0.0192
G1  X229.000  E2.2044
G1  Y192.272  E0.0192
G1  X171.000  E2.2044
G1  Y191.766  E0.0192
G1  X229.000  E2.2044
G1  Y191.260  E0.0192
G1  X171.000  E2.2044
G1  Y190.754  E0.0192
G1  X229.000  E2.2044
G1  Y190.248  E0.0192
G1  X171.000  E2.2044
G1  Y189.742  E0.0192
G1  X229.000  E2.2044
G1  Y189.236  E0.0192
G1  X171.000  E2.2044
G1  Y188.730  E0.0192
G1  X229.000  E2.2044
G1  Y188.225  E0.0192
G1  X171.000  E2.2044
M73 P2 R91
G1  Y187.719  E0.0192
G1  X229.000  E2.2044
G1  Y187.213  E0.0192
G1  X171.000  E2.2044
G1  Y186.707  E0.0192
G1  X229.000  E2.2044
G1  Y186.201  E0.0192
G1  X171.000  E2.2044
G1  Y185.695  E0.0192
G1  X229.000  E2.2044
G1  Y185.189  E0.0192
G1  X171.000  E2.2044
M73 P3 R91
M73 Q3 S92
G1  Y184.683  E0.0192
G1  X229.000  E2.2044
G1  Y184.177  E0.0192
G1  X171.000  E2.2044
G1  Y183.672  E0.0192
G1  X229.000  E2.2044
G1  Y183.166  E0.0192
G1  X171.000  E2.2044
G1  Y182.660  E0.0192
G1  X229.000  E2.2044
G1  Y182.154  E0.0192
G1  X171.000  E2.2044
G1  Y181.648  E0.0192
G1  X229.000  E2.2044
G1  Y181.142  E0.0192
G1  X171.000  E2.2044
G1  Y180.636  E0.0192
G1  X229.000  E2.2044
M73 Q3 S91
G1  Y180.130  E0.0192
G1  X171.000  E2.2044
G1  Y179.624  E0.0192
G1  X229.000  E2.2044
G1  Y179.118  E0.0192
G1  X171.000  E2.2044
G1  Y178.613  E0.0192
G1  X229.000  E2.2044
G1  Y178.107  E0.0192
G1  X171.000  E2.2044
G1  Y177.601  E0.0192
G1  X229.000  E2.2044
G1  Y177.095  E0.0192
G1  X171.000  E2.2044
G1  Y176.589  E0.0192
G1  X229.000  E2.2044
G1  Y176.083  E0.0192
G1  X171.000  E2.2044
G1  Y175.577  E0.0192
G1  X229.000  E2.2044
M73 P3 R90
G1  Y175.071  E0.0192
G1  X171.000  E2.2044
G1  Y174.565  E0.0192
G1  X229.000  E2.2044
G1  Y174.060  E0.0192
G1  X171.000  E2.2044
G1  Y173.554  E0.0192
G1  X229.000  E2.2044
M73 P4 R90
M73 Q4 S91
G1  Y173.048  E0.0192
G1  X171.000  E2.2044
G1  Y172.542  E0.0192
G1  X229.000  E2.2044
G1  Y172.036  E0.0192
G1  X171.000  E2.2044
G1  Y171.530  E0.0192
G1  X229.000  E2.2044
G1  Y171.024  E0.0192
G1  X171.000  E2.2044
G1  Y170.518  E0.0192
G1  X229.000  E2.2044
G1  Y170.012  E0.0192
G1  X171.000  E2.2044
G1  Y169.507  E0.0192
G1  X229.000  E2.2044
G1  Y169.001  E0.0192
G1  X171.000  E2.2044
G1  Y168.495  E0.0192
G1  X229.000  E2.2044
M73 Q4 S90
G1  Y167.989  E0.0192
G1  X171.000  E2.2044
G1  Y167.483  E0.0192
G1  X229.000  E2.2044
G1  Y166.977  E0.0192
G1  X171.000  E2.2044
G1  Y166.471  E0.0192
G1  X229.000  E2.2044
G1  Y165.965  E0.0192
G1  X171.000  E2.2044
G1  Y165.459  E0.0192
G1  X229.000  E2.2044
G1  Y164.954  E0.0192
G1  X171.000  E2.2044
G1  Y164.448  E0.0192
G1  X229.000  E2.2044
G1  Y163.942  E0.0192
G1  X171.000  E2.2044
G1  Y163.436  E0.0192
G1  X229.000  E2.2044
M73 P4 R89
G1  Y162.930  E0.0192
G1  X171.000  E2.2044
G1  Y162.424  E0.0192
G1  X229.000  E2.2044
G1  Y161.918  E0.0192
G1  X171.000  E2.2044
M73 P5 R89
M73 Q5 S90
G1  Y161.412  E0.0192
G1  X229.000  E2.2044
G1  Y160.906  E0.0192
G1  X171.000  E2.2044
G1  Y160.401  E0.0192
G1  X229.000  E2.2044
G1  Y159.895  E0.0192
G1  X171.000  E2.2044
G1  Y159.389  E0.0192
G1  X229.000  E2.2044
G1  Y158.883  E0.0192
G1  X171.000  E2.2044
G1  Y158.377  E0.0192
G1  X229.000  E2.2044
G1  Y157.871  E0.0192
G1  X171.000  E2.2044
G1  Y157.365  E0.0192
G1  X229.000  E2.2044
G1  Y156.859  E0.0192
G1  X171.000  E2.2044
G1  Y156.353  E0.0192
G1  X229.000  E2.2044
G1  Y155.848  E0.0192
G1  X171.000  E2.2044
M73 Q5 S89
G1  Y155.342  E0.0192
G1  X229.000  E2.2044
G1  Y154.836  E0.0192
G1  X171.000  E2.2044
G1  Y154.330  E0.0192
G1  X229.000  E2.2044
G1  Y153.824  E0.0192
G1  X171.000  E2.2044
G1  Y153.318  E0.0192
G1  X229.000  E2.2044
G1  Y152.812  E0.0192
G1  X171.000  E2.2044
G1  Y152.306  E0.0192
G1  X229.000  E2.2044
G1  Y151.800  E0.0192
G1  X171.000  E2.2044
G1  Y151.295  E0.0192
G1  X229.000  E2.2044
G1  Y150.789  E0.0192
G1  X171.000  E2.2044
M73 P5 R88
G1  Y150.283  E0.0192
G1  X229.000  E2.2044
M73 P6 R88
M73 Q6 S89
G1  Y149.777  E0.0192
G1  X171.000  E2.2044
G1  Y149.271  E0.0192
G1  X229.000  E2.2044
G1  Y148.765  E0.0192
G1  X171.000  E2.2044
G1  Y148.259  E0.0192
G1  X229.000  E2.2044
G1  Y147.753  E0.0192
G1  X171.000  E2.2044
G1  Y147.247  E0.0192
G1  X229.000  E2.2044
G1  Y146.742  E0.0192
G1  X171.000  E2.2044
G1  Y146.236  E0.0192
G1  X229.000  E2.2044
G1  Y145.730  E0.0192
G1  X171.000  E2.2044
G1  Y145.224  E0.0192
G1  X229.000  E2.2044
G1  Y144.718  E0.0192
G1  X171.000  E2.2044
G1  Y144.212  E0.0192
G1  X229.000  E2.2044
G1  Y143.706  E0.0192
G1  X171.000  E2.2044
M73 Q6 S88
G1  Y143.200  E0.0192
G1  X229.000  E2.2044
G1  Y142.694  E0.0192
G1  X171.000  E2.2044
G1  Y142.189  E0.0192
G1  X229.000  E2.2044
G1  Y141.683  E0.0192
G1  X171.000  E2.2044
G1  Y141.177  E0.0192
G1  X229.000  E2.2044
G1  Y140.671  E0.0192
G1  X171.000  E2.2044
G1  Y140.165  E0.0192
G1  X229.000  E2.2044
G1  Y139.659  E0.0192
G1  X171.000  E2.2044
G1  Y139.153  E0.0192
G1  X229.000  E2.2044
G1  Y138.647  E0.0192
G1  X171.000  E2.2044
M73 P7 R87
G1  Y138.141  E0.0192
G1  X229.000  E2.2044
M73 Q7 S88
G1  Y137.636  E0.0192
G1  X171.000  E2.2044
G1  Y137.130  E0.0192
G1  X229.000  E2.2044
G1  Y136.624  E0.0192
G1  X171.000  E2.2044
G1  Y136.118  E0.0192
G1  X229.000  E2.2044
G1  Y135.612  E0.0192
G1  X171.000  E2.2044
G1  Y135.106  E0.0192
G1  X229.000  E2.2044
G1  Y134.600  E0.0192
G1  X171.000  E2.2044
G1  Y134.094  E0.0192
G1  X229.000  E2.2044
G1  Y133.588  E0.0192
G1  X171.000  E2.2044
G1  Y133.083  E0.0192
G1  X229.000  E2.2044
G1  Y132.577  E0.0192
G1  X171.000  E2.2044
G1  Y132.071  E0.0192
G1  X229.000  E2.2044
G1  Y131.565  E0.0192
G1  X171.000  E2.2044
G1  Y131.059  E0.0192
G1  X229.000  E2.2044
M73 Q7 S87
G1  Y130.553  E0.0192
G1  X171.000  E2.2044
G1  Y130.047  E0.0192
G1  X229.000  E2.2044
G1  Y129.541  E0.0192
G1  X171.000  E2.2044
G1  Y129.035  E0.0192
G1  X229.000  E2.2044
G1  Y128.530  E0.0192
G1  X171.000  E2.2044
G1  Y128.024  E0.0192
G1  X229.000  E2.2044
G1  Y127.518  E0.0192
G1  X171.000  E2.2044
G1  Y127.012  E0.0192
G1  X229.000  E2.2044
M73 P8 R87
G1  Y126.506  E0.0192
G1  X171.000  E2.2044
M73 Q8 S87
G1  Y126.000  E0.0192
G1  X229.000  E2.2044
; CP EMPTY GRID END
;------------------







;WIPE_START
M73 P8 R86
G1 F8640.000
G1 X225.709 Y126.000 E-0.76000
;WIPE_END
G1 E-0.04000 F2100.000
G1 Z0.600 F10800.000
G1 X233.948 Y123.030
G1 Z0.200
G1 E0.80000 F2100.000
M204 S1000
;TYPE:Skirt
;WIDTH:0.42
;HEIGHT:0.2
G1 F1200.000
G1 X233.977 Y201.986 E2.47562
G1 X233.915 Y202.500 E0.01621
G1 X233.743 Y202.987 E0.01621
G1 X233.468 Y203.430 E0.01633
G1 X233.106 Y203.799 E0.01621
G1 X232.404 Y204.197 E0.02532
G1 X231.612 Y204.337 E0.02520
G1 X168.393 Y204.337 E1.98221
G1 X167.890 Y204.281 E0.01585
G1 X167.407 Y204.119 E0.01597
G1 X34.889 Y113.885 E5.02680
G1 X34.230 Y113.334 E0.02692
G1 X33.753 Y112.793 E0.02264
G1 X33.147 Y111.810 E0.03619
G1 X32.723 Y110.513 E0.04279
G1 X32.625 Y109.591 E0.02906
G1 X32.623 Y100.485 E0.28554
G1 X32.689 Y99.663 E0.02586
G1 X32.876 Y98.871 E0.02550
G1 X33.134 Y98.221 E0.02192
G1 X33.670 Y97.312 E0.03310
G1 X34.184 Y96.711 E0.02479
G1 X34.725 Y96.238 E0.02252
G1 X35.690 Y95.647 E0.03548
G1 X36.397 Y95.368 E0.02383
G1 X107.172 Y74.484 E2.31372
G1 X112.972 Y73.052 E0.18730
G1 X118.844 Y72.188 E0.18609
G1 X125.003 Y71.881 E0.19336
G1 X131.154 Y72.188 E0.19312
G1 X137.026 Y73.051 E0.18609
G1 X142.854 Y74.491 E0.18824
G1 X213.629 Y95.376 E2.31368
G1 X214.428 Y95.702 E0.02705
G1 X215.130 Y96.128 E0.02574
G1 X215.778 Y96.674 E0.02658
G1 X216.266 Y97.231 E0.02323
G1 X233.561 Y122.058 E0.94869
G1 X233.808 Y122.521 E0.01645
G1 X233.932 Y122.972 E0.01469
; printing object Ensamblaje1 - blanco.STL id:0 copy 0
;WIPE_START
G1 F8640.000
G1 X233.934 Y126.264 E-0.76000
;WIPE_END
G1 E-0.04000 F2100.000
G1 Z0.600 F10800.000
G1 X39.166 Y110.916
G1 Z0.200
G1 E0.80000 F2100.000
;TYPE:Perimeter
G1 F1200.000
G1 X38.857 Y111.140 E0.01197
G1 X38.628 Y111.235 E0.00778
G1 X38.301 Y111.288 E0.01037
G1 X37.544 Y111.278 E0.02375
G1 X37.166 Y111.155 E0.01246
G1 X36.888 Y110.959 E0.01066
G1 X36.696 Y110.750 E0.00890
G1 X36.519 Y110.401 E0.01227
G1 X36.463 Y110.055 E0.01099
G1 X36.463 Y99.945 E0.31699
G1 X36.515 Y99.622 E0.01025
G1 X36.610 Y99.393 E0.00778
G1 X36.834 Y99.084 E0.01197
G1 X37.143 Y98.860 E0.01197
G1 X37.372 Y98.765 E0.00778
G1 X37.699 Y98.712 E0.01037
G1 X38.456 Y98.722 E0.02375
G1 X38.816 Y98.839 E0.01184
G1 X39.028 Y98.969 E0.00780
G1 X39.298 Y99.239 E0.01197
G1 X39.481 Y99.599 E0.01268
G1 X39.537 Y99.945 E0.01099
G1 X39.537 Y110.055 E0.31699
G1 X39.485 Y110.378 E0.01025
G1 X39.390 Y110.607 E0.00778
G1 X39.201 Y110.867 E0.01009
G1 X38.524 Y110.870 F10800.000
;TYPE:External perimeter
G1 F1200.000
G1 X38.273 Y110.910 E0.00797
G1 X37.606 Y110.902 E0.02093
G1 X37.337 Y110.814 E0.00887
G1 X37.139 Y110.674 E0.00760
G1 X37.009 Y110.533 E0.00603
G1 X36.882 Y110.282 E0.00880
G1 X36.840 Y110.025 E0.00819
G1 X36.840 Y99.975 E0.31509
G1 X36.880 Y99.726 E0.00792
G1 X36.941 Y99.579 E0.00500
G1 X37.104 Y99.354 E0.00869
G1 X37.329 Y99.191 E0.00869
G1 X37.476 Y99.130 E0.00500
G1 X37.727 Y99.090 E0.00797
G1 X38.394 Y99.098 E0.02093
G1 X38.657 Y99.184 E0.00865
G1 X38.793 Y99.267 E0.00501
G1 X38.989 Y99.463 E0.00869
G1 X39.118 Y99.718 E0.00895
G1 X39.160 Y99.975 E0.00819
G1 X39.160 Y110.025 E0.31509
G1 X39.120 Y110.274 E0.00792
G1 X39.059 Y110.421 E0.00500
G1 X38.896 Y110.646 E0.00870
G1 X38.671 Y110.809 E0.00869
G1 X38.580 Y110.847 E0.00311
G1 X38.465 Y111.117 F10800.000
;WIPE_START
G1 F8640.000
G1 X38.273 Y110.910 E-0.07223
G1 X37.606 Y110.902 E-0.15415
G1 X37.337 Y110.814 E-0.06533
G1 X37.139 Y110.674 E-0.05594
G1 X37.009 Y110.533 E-0.04437
G1 X36.882 Y110.282 E-0.06482
G1 X36.840 Y110.025 E-0.06029
G1 X36.840 Y108.973 E-0.24287
;WIPE_END
G1 E-0.04000 F2100.000
G1 Z0.600 F10800.000
G1 X156.460 Y95.787
M73 Q8 S86
G1 Z0.200
G1 E0.80000 F2100.000
;TYPE:Perimeter
G1 F1200.000
G1 X177.753 Y95.787 E0.66762
G1 X178.992 Y95.869 E0.03892
G1 X180.183 Y96.108 E0.03810
G1 X181.357 Y96.510 E0.03892
G1 X185.606 Y98.287 E0.14439
G1 X211.969 Y98.287 E0.82659
G1 X212.346 Y98.317 E0.01185
G1 X212.683 Y98.398 E0.01088
G1 X213.004 Y98.530 E0.01088
G1 X213.301 Y98.713 E0.01094
G1 X210.463 Y98.713 E0.08898
G1 X210.463 Y111.287 E0.39425
G1 X213.301 Y111.287 E0.08898
G1 X213.004 Y111.470 E0.01094
G1 X212.683 Y111.602 E0.01088
G1 X212.346 Y111.683 E0.01088
G1 X211.969 Y111.713 E0.01185
G1 X185.606 Y111.713 E0.82659
G1 X181.357 Y113.490 E0.14439
G1 X180.183 Y113.892 E0.03892
G1 X178.992 Y114.131 E0.03810
G1 X177.753 Y114.213 E0.03892
G1 X156.460 Y114.213 E0.66762
G1 X147.164 Y130.637 E0.59173
G1 X141.991 Y132.464 E0.17201
G1 X136.417 Y133.843 E0.18004
G1 X130.735 Y134.676 E0.18004
G1 X125.000 Y134.954 E0.18004
G1 X119.265 Y134.676 E0.18004
G1 X113.583 Y133.843 E0.18004
G1 X108.009 Y132.464 E0.18004
G1 X102.836 Y130.637 E0.17201
G1 X93.540 Y114.213 E0.59173
G1 X72.247 Y114.213 E0.66762
G1 X71.008 Y114.131 E0.03892
G1 X69.817 Y113.892 E0.03810
G1 X68.643 Y113.490 E0.03892
G1 X64.394 Y111.713 E0.14439
